icons/icon-512.svg

<svg clip-rule="evenodd" fill-rule="evenodd" stroke-linejoin="round" stroke-miterlimit="2" viewBox="0 0 489 489" xmlns="http://www.w3.org/2000/svg"><path d="m-9-9h511v511h-511z" fill="#ff3763"/><path d="m40.825736 98.771458h414.615487v304.437945h-414.615487z" fill="#efefef" stroke-width="2.899409"/><path d="m178.275 178.269c7.8-7.334 16.905-10.174 27.093-10.652 26.487-1.244 52.982-.373 79.472-.549 6.475-.043 12.98.221 19.381 1.49 17.517 3.475 29.144 16.045 29.947 33.793 1.469 32.463 1.561 64.965-.001 97.425-.927 19.265-15.111 33.438-34.431 34.403-32.455 1.62-64.956 1.657-97.41-.003-20.067-1.026-33.816-16.232-34.718-36.39-1.223-27.323-.432-54.648-.492-81.971-.013-6.114.226-12.293 1.399-18.39 1.394-7.247 4.379-13.588 9.76-19.156m111.959 32.915c-12.14-.048-19.397 5.015-23.328 16.383-2.449 7.081-4.812 14.192-7.183 21.301-2.458 7.37-3.429 7.845-10.218 4.615-7.67-3.649-15.221-7.564-23.004-10.95-3.495-1.521-4.777-3.766-4.764-7.282.022-6.165.078-12.333-.089-18.494-.134-4.953-2.384-6.828-7.352-6.473-8.914.636-16.342 3.506-20.782 12.162-2.666 5.199-3.07 7.894 1.091 12.087 17.836 17.969 35.719 35.893 53.739 53.677 5.344 5.273 10.847 5.011 16.286-.342 13.18-12.973 26.401-25.908 39.342-39.118 6.285-6.416 8.549-14.28 5.214-22.991-3.162-8.26-9.117-13.346-18.952-14.575z" fill="#ff3763" fill-rule="nonzero" transform="matrix(2.899409 0 0 2.899409 -483.967293 -484.009751)"/></svg>

<?xml version="1.0" encoding="UTF-8" standalone="no"?>
<!DOCTYPE svg PUBLIC "-//W3C//DTD SVG 1.1//EN" "http://www.w3.org/Graphics/SVG/1.1/DTD/svg11.dtd">
<svg width="100%" height="100%" viewBox="0 0 489 489" version="1.1" xmlns="http://www.w3.org/2000/svg" xmlns:xlink="http://www.w3.org/1999/xlink" xml:space="preserve" xmlns:serif="http://www.serif.com/" style="fill-rule:evenodd;clip-rule:evenodd;stroke-linejoin:round;stroke-miterlimit:2;">
    <g transform="matrix(1,0,0,1,-11.919195,-11.93383)">
        <g transform="matrix(2.899409,0,0,2.899409,-472.048098,-472.075921)">
            <rect x="181" y="201" width="143" height="105" style="fill:rgb(239,239,239);"/>
        </g>
        <g transform="matrix(2.899409,0,0,2.899409,-472.048098,-472.075921)">
            <path d="M178.275,178.269C186.075,170.935 195.18,168.095 205.368,167.617C231.855,166.373 258.35,167.244 284.84,167.068C291.315,167.025 297.82,167.289 304.221,168.558C321.738,172.033 333.365,184.603 334.168,202.351C335.637,234.814 335.729,267.316 334.167,299.776C333.24,319.041 319.056,333.214 299.736,334.179C267.281,335.799 234.78,335.836 202.326,334.176C182.259,333.15 168.51,317.944 167.608,297.786C166.385,270.463 167.176,243.138 167.116,215.815C167.103,209.701 167.342,203.522 168.515,197.425C169.909,190.178 172.894,183.837 178.275,178.269M290.234,211.184C278.094,211.136 270.837,216.199 266.906,227.567C264.457,234.648 262.094,241.759 259.723,248.868C257.265,256.238 256.294,256.713 249.505,253.483C241.835,249.834 234.284,245.919 226.501,242.533C223.006,241.012 221.724,238.767 221.737,235.251C221.759,229.086 221.815,222.918 221.648,216.757C221.514,211.804 219.264,209.929 214.296,210.284C205.382,210.92 197.954,213.79 193.514,222.446C190.848,227.645 190.444,230.34 194.605,234.533C212.441,252.502 230.324,270.426 248.344,288.21C253.688,293.483 259.191,293.221 264.63,287.868C277.81,274.895 291.031,261.96 303.972,248.75C310.257,242.334 312.521,234.47 309.186,225.759C306.024,217.499 300.069,212.413 290.234,211.184Z" style="fill:rgb(255,55,99);fill-rule:nonzero;"/>
        </g>
    </g>
</svg>
